svg/u1f1e9.svg

<svg viewBox="0 0 128 128" xmlns="http://www.w3.org/2000/svg">
  <path d="m65.71 15.31h-43.6c-1.25 0-2.24 1-2.24 2.24v100.96c0 1.24 1 2.24 2.24 2.24h43.59c30.15 0 50.43-21.19 50.43-52.73 0-31.53-20.27-52.71-50.42-52.71zm-1.29 80.8c-0.28 0-0.54-0.07-0.79-0.16-0.06 0.01-0.11 0.03-0.17 0.03-0.08 0.01-0.14 0.04-0.22 0.04h-14.7c-1.2 0-2.16-0.97-2.16-2.16v-51.67c0-1.19 0.96-2.16 2.16-2.16h14.7c0.08 0 0.14 0.03 0.22 0.04 0.05 0 0.11 0.02 0.17 0.03 0.25-0.09 0.51-0.16 0.79-0.16 0.43 0 0.86 0.04 1.29 0.06 0.75 0.03 1.5 0.09 2.24 0.18 13.11 1.63 21.69 12.39 21.69 27.84s-8.59 26.21-21.69 27.84c-0.74 0.09-1.49 0.15-2.24 0.18-0.43 0.03-0.86 0.07-1.29 0.07z" fill="#40C0E7"/>
</svg>

<svg viewBox="0 0 128 128" xmlns="http://www.w3.org/2000/svg">
  <defs/>
  <path d="M65.71,15.31 L22.11,15.31 C20.86,15.31 19.87,16.31 19.87,17.55 L19.87,118.51 C19.87,119.75 20.87,120.75 22.11,120.75 L65.7,120.75 C95.85,120.75 116.13,99.56 116.13,68.02 C116.13,36.49 95.86,15.31 65.71,15.31 Z M64.42,96.11 C64.14,96.11 63.88,96.04 63.63,95.95 C63.57,95.96 63.52,95.98 63.46,95.98 C63.38,95.99 63.32,96.02 63.24,96.02 L48.54,96.02 C47.34,96.02 46.38,95.05 46.38,93.86 L46.38,42.19 C46.38,41 47.34,40.03 48.54,40.03 L63.24,40.03 C63.32,40.03 63.38,40.06 63.46,40.07 C63.51,40.07 63.57,40.09 63.63,40.1 C63.88,40.01 64.14,39.94 64.42,39.94 C64.85,39.94 65.28,39.98 65.71,40 C66.46,40.03 67.21,40.09 67.95,40.18 C81.06,41.81 89.64,52.57 89.64,68.02 C89.64,83.47 81.05,94.23 67.95,95.86 C67.21,95.95 66.46,96.01 65.71,96.04 C65.28,96.07 64.85,96.11 64.42,96.11 Z" fill="#40C0E7"/>
</svg>
